assets/icons/search.svg

<svg height="30" viewBox="0 0 30 30" width="30" xmlns="http://www.w3.org/2000/svg"><path d="m13 3c-5.5110029 0-10 4.4889971-10 10 0 5.511003 4.4889971 10 10 10 2.396508 0 4.597385-.851014 6.322266-2.263672l5.970703 5.970703a1.0001 1.0001 0 1 0 1.414062-1.414062l-5.970703-5.970703c1.412658-1.724881 2.263672-3.925758 2.263672-6.322266 0-5.5110029-4.488997-10-10-10zm0 2c4.430123 0 8 3.5698774 8 8 0 4.430123-3.569877 8-8 8-4.4301226 0-8-3.569877-8-8 0-4.4301226 3.5698774-8 8-8z"/></svg>

<svg fill="#000000" xmlns="http://www.w3.org/2000/svg"  viewBox="0 0 30 30" width="30px" height="30px"><path d="M 13 3 C 7.4889971 3 3 7.4889971 3 13 C 3 18.511003 7.4889971 23 13 23 C 15.396508 23 17.597385 22.148986 19.322266 20.736328 L 25.292969 26.707031 A 1.0001 1.0001 0 1 0 26.707031 25.292969 L 20.736328 19.322266 C 22.148986 17.597385 23 15.396508 23 13 C 23 7.4889971 18.511003 3 13 3 z M 13 5 C 17.430123 5 21 8.5698774 21 13 C 21 17.430123 17.430123 21 13 21 C 8.5698774 21 5 17.430123 5 13 C 5 8.5698774 8.5698774 5 13 5 z"/></svg>
